X:1
T:When We Reach the Glory Land
T:When We Reach the Glory Land
T:Roger Mills Hickman
T:Rodney Chirpe, 1918
T:Public Domain Courtesy of the Cyber Hymnal™
C:Roger Mills Hickman
Z:Public Domain
Z:Courtesy of the Cyber Hymnal™
%%score 1 ( 2 3 )
L:1/8
Q:1/4=110
M:4/4
K:Bb
V:1 treble 
V:2 bass 
V:3 bass 
V:1
 [DF][DF] | [DB]2 [DB][FB] [Fc]2 [Fc][Fc] | [Fd]4 [DB]2 [DB]2 | [Fe]2 [Fd][Fd] [Ec]2 [=Ed]2 | %4
w: 1.~What a|won- der- ful Sav- ior is|Je- sus, Who|suf- fered with nail- pierced|
w: 2.~O the|Sav- ior is call- ing the|sin- ner, To|join with that glo- rious|
w: 3.~In the|glor- i- ous, won- der- ful|ci- ty, Where|Je- sus shall have com-|
 [Fc]6 [EF]2 | [DB]2 [DB][DB] [Fc]2 [Fc][Fc] | [Fd]4 [Ee]2 [=EB][Ec] | [Fd]2 [DB]2 [Ec] [Ec]3 | %8
w: hand; O|yes, ’twill be heav- en to|see Him, When we|reach the glo- ry|
w: band Of|saved who will praise Him for-|ev- er, When we|reach the glo- ry|
w: mand, We’ll|dwell with the Sav- ior for-|ev- er, When we|reach the glo- ry|
 [DB]6 ||"^Refrain" [B,D][CE] | [DF]2 [DG]2 [DA] [DB]3 | [Fd]6 [Fd][Ge] | [Fd]2 [^Fc]2 [GB] [EG]3 | %13
w: land.|||||
w: land.|When we|reach the glo- ry|land, When we|reach the glo- ry|
w: land.|||||
 [DF]6 [EF]2 | [DB]2 [DB][DB] [Fc]2 [Fc][Fc] | [Fd]4 !fermata![Ee]2 [=EB][Ec] | %16
w: |||
w: land, We’ll|walk and we’ll talk with the|Sav- ior When we|
w: |||
 [Fd]2 [DB]2 [Ec] [Ec]3 | [DB]6 |] %18
w: ||
w: reach the glo- ry|land.|
w: ||
V:2
 [B,,B,][B,,B,] | [B,,F,]2 [B,,F,][D,B,] [F,A,]2 [F,A,][F,A,] | B,4 B,2 [B,,B,]2 | %3
w: ~ ~|~ ~ ~ ~ ~ ~|~ ~ ~|
 [C,A,]2 [D,B,][D,B,] [E,G,]2 [C,B,]2 | [F,A,]6 [A,C]2 | B,2 B,B, [A,C]2 [A,C][A,C] | %6
w: ~ ~ ~ ~ ~|~ ~|~ ~ ~ ~ ~ ~|
 B,4 [G,B,]2 [_G,B,][G,B,] | [F,B,]2 [F,B,]2 [F,A,] F,3 | [B,,F,]6 || [B,,F,][B,,F,] | %10
w: ~ ~ ~ ~|~ ~ ~ ~|~|~ ~|
 [B,,B,]2 [B,,B,]2 [B,,F,] [B,,F,]3 | [B,,B,]>[B,,B,] [D,B,][F,B,] B,2 [B,,B,][B,,B,] | %12
w: ~ ~ ~ ~|~ the glo- ry land ~ ~|
 [B,,B,]2 [D,A,]2 [E,G,] [E,B,]3 | [B,,B,]>[B,,B,] [D,B,][F,B,] B,2 [F,C]2 | %14
w: ~ ~ ~ ~|~ the glo- ry land *|
 [B,,B,]2 B,B, [A,C]2 [A,C][A,C] | B,4 [G,B,]2 [_G,B,][G,B,] | [F,B,]2 [F,B,]2 [F,A,] F,3 | %17
w: |||
 [B,,F,]6 |] %18
w: |
V:3
 x2 | x8 | B,4 B,2 x2 | x8 | x8 | B,2 B,B, x4 | (B,2 _A,2) x4 | x5 F,3 | x6 || x2 | x8 | %11
 x4 B,2 x2 | x8 | x4 B,2 x2 | x2 B,B, x4 | (B,2 _A,2) x4 | x5 F,3 | x6 |] %18

